X:473
T:Fanning's
R:jig
Z:hn-jig-473
M:6/8
L:1/8
K:Edor
GEG BAG | FDF AFD | EB,E GEG | BGB edB |
G2B dBG | FDF AFA | gef dBA |1 BGE E2F :|2 Bee e2f ||
|: geb geb | geb bag | fda fda | fda agf |
eBe g2a | bag fef | gef dBA |1 Bee e2f :|2 BGE E2F ||

